!!! OTL: Berkowitz195
!!! Chapter: 1
!!! Section: II
!!! Page: 46
!!! Mode: 
!!! Encoder: DJB
**kern
*staff1
*I"Piano
=1-
*clefF4
*k[b-e-a-]
*E-:
*M3/4
4G\
4E-\
12E-\L
12F\
12G\J
=2
4F\
4D\
4BB-/
=3
4A-\
4F\
12F\L
12G\
12A-\J
=4
2B-\
4B-\
=5
4c\
4A-\
12F\L
12G\
12A-\J
=6
4B-\
4E-\
4G\
=7
4F\
4B-\
12BB-/L
12C/
12D/J
=8
2.E-\
==
*-
